app/style/icons/vote-time-stats.svg

<svg viewBox="0 0 16 16" xmlns="http://www.w3.org/2000/svg"><path d="m11.43 8.16v.29a1.7 1.7 0 0 0 0-.29z" fill="none"/><g fill="#8795a2"><path d="m15.42 5a8.09 8.09 0 0 1 .5 1.88 7.93 7.93 0 0 0 -.5-1.88z"/><path d="m7.32 4.64a3.44 3.44 0 0 1 1.2 0 3.34 3.34 0 0 0 -1.2 0z"/><path d="m11.43 8.16v-.06a3.44 3.44 0 0 1 0 .35c-.02-.1-.01-.19 0-.29z"/><path d="m.57 11a8.09 8.09 0 0 1 -.49-1.9 7.93 7.93 0 0 0 .49 1.9z"/></g><path d="m11.37 15.25a8 8 0 0 0 4.14-4.51l-4.29-1.56a3.45 3.45 0 0 1 -1.88 2h.1z" fill="#fff"/><path d="m15.51 10.74h.01z" fill="#8795a2"/><path d="m.75 11.37a8 8 0 0 0 4.5 4.14l.46-1.25 1.1-3a3.45 3.45 0 0 1 -2-1.88v.1z" fill="#fff"/><path d="m8.68 11.36a3.44 3.44 0 0 1 -1.2 0 3.34 3.34 0 0 0 1.2 0z" fill="#8795a2"/><path d="m4.64 8.68a3.44 3.44 0 0 1 0-1.2 3.34 3.34 0 0 0 0 1.2z" fill="#8795a2"/><path d="m15.25 4.62a8 8 0 0 0 -4.49-4.13l-.76 2.14-.81 2.15a3.45 3.45 0 0 1 2 1.88v-.11z" fill="#fff"/><path d="m4.62.75a8 8 0 0 0 -4.13 4.5l1.34.49 3 1.08a3.45 3.45 0 0 1 1.88-2h-.11z" fill="#fff"/><path d="m5 .57a8.09 8.09 0 0 1 1.9-.49 7.93 7.93 0 0 0 -1.9.49z" fill="#8795a2"/></svg>

<?xml version="1.0" encoding="UTF-8" standalone="no"?> <svg xmlns:dc="http://purl.org/dc/elements/1.1/" xmlns:cc="http://creativecommons.org/ns#" xmlns:rdf="http://www.w3.org/1999/02/22-rdf-syntax-ns#" xmlns:svg="http://www.w3.org/2000/svg" xmlns="http://www.w3.org/2000/svg" xmlns:sodipodi="http://sodipodi.sourceforge.net/DTD/sodipodi-0.dtd" xmlns:inkscape="http://www.inkscape.org/namespaces/inkscape" viewBox="0 0 16 16" version="1.1" id="svg32"> <defs id="defs4"> <style id="style2">.cls-1{fill:none;}.cls-2{fill:#8795a2;}.cls-3{fill:#96ebd1;}.cls-4{fill:#18173f;}.cls-5{fill:#fff;}</style> </defs> <title id="title6">Asset 31</title> <g id="Layer_2" data-name="Layer 2"> <g id="Layer_9" data-name="Layer 9"> <path id="_Path_" data-name="&lt;Path&gt;" class="cls-1" d="M11.43,8.16c0,.1,0,.19,0,.29A1.7,1.7,0,0,0,11.43,8.16Z" /> <path id="_Path_2" data-name="&lt;Path&gt;" class="cls-2" d="M15.42,5a8.09,8.09,0,0,1,.5,1.88A7.93,7.93,0,0,0,15.42,5Z" /> <path id="_Path_3" data-name="&lt;Path&gt;" class="cls-2" d="M7.32,4.64a3.44,3.44,0,0,1,1.2,0,3.34,3.34,0,0,0-1.2,0Z" /> <path id="_Path_4" data-name="&lt;Path&gt;" class="cls-2" d="M11.43,8.16V8.1a3.44,3.44,0,0,1,0,.35h0C11.41,8.35,11.42,8.26,11.43,8.16Z" /> <path id="_Path_5" data-name="&lt;Path&gt;" class="cls-2" d="M.57,11A8.09,8.09,0,0,1,.08,9.1,7.93,7.93,0,0,0,.57,11Z" /> <polygon id="_Path_6" data-name="&lt;Path&gt;" class="cls-2" points="15.65 10.34 15.65 10.34 15.65 10.34 15.65 10.34" /> <path id="_Path_7" data-name="&lt;Path&gt;" class="cls-3" d="M11.37,15.25a8,8,0,0,0,4.14-4.51L11.22,9.18a3.45,3.45,0,0,1-1.88,2l.1,0Z" style="fill:#ffffff;fill-opacity:1" /> <polygon id="_Path_8" data-name="&lt;Path&gt;" class="cls-2" points="15.72 10.08 15.72 10.08 15.72 10.08 15.72 10.08" /> <polygon id="_Path_9" data-name="&lt;Path&gt;" class="cls-2" points="15.67 10.27 15.67 10.27 15.67 10.27 15.67 10.27" /> <polygon id="_Path_10" data-name="&lt;Path&gt;" class="cls-2" points="15.51 10.74 15.51 10.74 15.52 10.74 15.52 10.74 15.52 10.74 15.51 10.74" /> <path id="_Path_11" data-name="&lt;Path&gt;" class="cls-3" d="M.75,11.37a8,8,0,0,0,4.5,4.14l.46-1.25,1.1-3h0a3.45,3.45,0,0,1-2-1.88l0,.1Z" style="fill:#ffffff;fill-opacity:1" /> <path id="_Path_12" data-name="&lt;Path&gt;" class="cls-2" d="M8.68,11.36a3.44,3.44,0,0,1-1.2,0,3.34,3.34,0,0,0,1.2,0Z" /> <path id="_Path_13" data-name="&lt;Path&gt;" class="cls-2" d="M4.64,8.68a3.44,3.44,0,0,1,0-1.2,3.34,3.34,0,0,0,0,1.2Z" /> <path id="_Path_14" data-name="&lt;Path&gt;" class="cls-3" d="M15.25,4.62A8,8,0,0,0,10.76.49L10,2.63,9.19,4.78h0a3.45,3.45,0,0,1,2,1.88l0-.11Z" style="fill:#ffffff;fill-opacity:1" /> <path id="_Path_15" data-name="&lt;Path&gt;" class="cls-2" d="M.48,5.26v0h0Z" /> <path id="_Path_16" data-name="&lt;Path&gt;" class="cls-3" d="M4.62.75A8,8,0,0,0,.49,5.25l1.34.49,3,1.08a3.45,3.45,0,0,1,1.88-2l-.11,0Z" style="fill:#ffffff;fill-opacity:1" /> <path id="_Path_17" data-name="&lt;Path&gt;" class="cls-2" d="M5,.57A8.09,8.09,0,0,1,6.9.08,7.93,7.93,0,0,0,5,.57Z" /> <path id="_Path_18" data-name="&lt;Path&gt;" class="cls-4" d="M4.78,6.86h0Z" /> </g> </g> </svg>
